www/assets/icons/face.svg

<svg xmlns="http://www.w3.org/2000/svg" width="24" height="24" viewBox="0 0 24 24" fill='currentColor'><path d="M9 11.75a1.25 1.25 0 1 0 0 2.5 1.25 1.25 0 0 0 0-2.5m6 0a1.25 1.25 0 1 0 0 2.5 1.25 1.25 0 0 0 0-2.5M12 2C6.48 2 2 6.48 2 12s4.48 10 10 10 10-4.48 10-10S17.52 2 12 2m0 18c-4.41 0-8-3.59-8-8 0-.29.02-.58.05-.86 2.36-1.05 4.23-2.98 5.21-5.37a9.97 9.97 0 0 0 10.41 3.97c.21.71.33 1.47.33 2.26 0 4.41-3.59 8-8 8"/></svg>

<svg width="24" height="24" viewBox="0 0 24 24" xmlns="http://www.w3.org/2000/svg" fill='currentColor'><path d="M9 11.75C8.31 11.75 7.75 12.31 7.75 13C7.75 13.69 8.31 14.25 9 14.25C9.69 14.25 10.25 13.69 10.25 13C10.25 12.31 9.69 11.75 9 11.75ZM15 11.75C14.31 11.75 13.75 12.31 13.75 13C13.75 13.69 14.31 14.25 15 14.25C15.69 14.25 16.25 13.69 16.25 13C16.25 12.31 15.69 11.75 15 11.75ZM12 2C6.48 2 2 6.48 2 12C2 17.52 6.48 22 12 22C17.52 22 22 17.52 22 12C22 6.48 17.52 2 12 2ZM12 20C7.59 20 4 16.41 4 12C4 11.71 4.02 11.42 4.05 11.14C6.41 10.09 8.28 8.16 9.26 5.77C11.07 8.33 14.05 10 17.42 10C18.2 10 18.95 9.91 19.67 9.74C19.88 10.45 20 11.21 20 12C20 16.41 16.41 20 12 20Z"/></svg>
